X:991
T:Stourbridge Fair
T:Sturbitch Fair
C:John Young, 1710
S:Colin Hume's website,  colinhume.com  - chords can also be printed below the stave.
Q:3/8=112
M:6/8
R:Jig
L:1/8
B:John Young - Second Volume of the Dancing Master, 1st edition (1710, p. 140)
%%MIDI ratio 3 1
%%stretchstaff 0
K:A
P:A
|: A | "A"e2e "D"fed | "A"e2A "/G#"A2A | "F#m"e2e "E7"f2g | "A"a3- a2e |\
"D"f>gf "A/C#"e>fe | "E7/B"d>ed "A"c2c | "Bm"d>ed "A"c>dc | "E"B>cB "/D"G2e |
"C#m"e>fe "/"e>fe | "B7"f>gf "/"f>ga | "E"g>fe "B7"ff2 | "E"e3- "E7"e2 :|
P:B
e | "A"a3 "/"e3 | "D"fgf "A"e2e | "D"f>gf "A"e>fe | "E7"d>ed "A"c2e |\
"Am"a2a a=gf | "Em"e>f=g "D"f>ga | "Am"a>=gf "D"f>ed | "Bm"d2f "/"f>ed |
"A"c2e "/"e>dc | "E"B2e "/"e>fe | "F#m"f>gf "E"g>fg | "A"a2e "D"f>ed |\
"A"c>de "E7"c>BA | "A"A2e "/G#"a2e | "F#m"c>de "E7"c>BA | "A"A3- "/"A2 |]

